!!!COM: Anonymous
!!!CDT: [?]
!!!OTL@@LAT: Laudate Dominum [...] Magnificat
!!!TXO: Latin
!!!ODT: 
!!!GTL: Hymnbook E
!!!ARL: Opactwo św. Wojciecha, Staniątki 
!!!voices:	3
**kern	**text	**kern	**text	**kern	**text
*staff3	*staff3	*staff2	*staff2	*staff1	*staff1
*I"Basso	*	*I"Canto II	*	*I"Canto I	*
=1-	=1-	=1-	=1-	=1-	=1-
*clefF4	*	*clefG2	*	*clefG2	*
*k[b-]	*	*k[b-]	*	*k[b-]	*
*met(c|)	*	*met(c|)	*	*met(c|)	*
*M2/2	*	*M2/2	*	*M2/2	*
1F	Lau-	1f	Lau-	1f	Lau-
=2	=2	=2	=2	=2	=2
1D	-da-	2f	-da-	1a	-da-
.	.	4e	.	.	.
.	.	4d	.	.	.
=3	=3	=3	=3	=3	=3
2.C	.	2.e	.	1cc	-te
4D	.	4f	.	.	.
=4	=4	=4	=4	=4	=4
2E	-te	2g	-te	2cc	Do-
[2F	Do-	2a	Do-	2cc	-mi-
=5	=5	=5	=5	=5	=5
2F]	.	2.g	-mi-	1cc	-num
2G	-mi-	.	.	.	.
.	.	4f	.	.	.
=6	=6	=6	=6	=6	=6
1A	-num	4e	.	2.cc	om-
.	.	4d	.	.	.
.	.	2c	-num	.	.
.	.	.	.	4dd	.
=7	=7	=7	=7	=7	=7
2G	om-	2g	om-	2ee	.
2F	-nes	[2cc	-nes	2ff	-nes
=8	=8	=8	=8	=8	=8
1G	gen-	4cc]	.	1dd	gen-
.	.	8bniL	.	.	.
.	.	8aJ	.	.	.
.	.	2b	gen-	.	.
=9	=9	=9	=9	=9	=9
1C	-tes	1cc	-tes	1cc	-tes
=10	=10	=10	=10	=10	=10
1F	et	2r	.	2r	.
.	.	2a	et	2a	et
=11	=11	=11	=11	=11	=11
2G	col-	2b-	col-	2dd	col-
2G	-lau-	2b-	-lau-	2dd	-lau-
=12	=12	=12	=12	=12	=12
2A	-da-	2a	-da-	2cc	-da-
2F	-te	2f	-te	2a	-te
=13	=13	=13	=13	=13	=13
1G	e-	1g	e-	1b-	e-
=14	=14	=14	=14	=14	=14
1D	-um	1f	-um	1a	-[um]
=15	=15	=15	=15	=15	=15
2F	om-	[1a	om-	2.cc	om-
2E	.	.	.	.	.
.	.	.	.	4b-	.
=16	=16	=16	=16	=16	=16
2F	-nes	2a]	.	2a	.
2C	.	2g	.	2g	-nes
=17	=17	=17	=17	=17	=17
2F	po-	2f	-nes	2a	po-
2BB-	.	2f	po-	2b-	.
=18	=18	=18	=18	=18	=18
1C	-pu-	4e	.	1g	-pu-
.	.	4d	.	.	.
.	.	2e	-pu-	.	.
=19	=19	=19	=19	=19	=19
1FF	-li.	1f	-li.	1f	-li.
=20||	=20||	=20||	=20||	=20||	=20||
2r	.	2r	.	2r	.
2F	Quo-	2f	Quo-	2f	Quo-
=21	=21	=21	=21	=21	=21
1C	-ni-	2.e	-ni-	1g	-ni-
.	.	4d	.	.	.
=22	=22	=22	=22	=22	=22
1F	-am	1c	-am	1a	-am
=23	=23	=23	=23	=23	=23
2r	.	2r	.	2r	.
2F	con-	2cc	con-	2a	con-
=24	=24	=24	=24	=24	=24
2F	-fir-	2cc	-fir-	2a	-fir-
2F	-ma-	2cc	-ma-	2a	-ma-
=25	=25	=25	=25	=25	=25
1F	-ta	1a	-ta	2.cc	-ta
.	.	.	.	4b-	.
=26	=26	=26	=26	=26	=26
1F	est	1cc	est	1a	[est]
=27	=27	=27	=27	=27	=27
2r	.	2r	.	2r	.
2F	mi-	2f	mi-	2a	mi-
=28	=28	=28	=28	=28	=28
2C	-se-	2g	-se-	2g	-se-
2D	-ri-	2a	-ri-	2f	-ri-
=29	=29	=29	=29	=29	=29
2BB-	-cor-	2g	-cor-	2b-	-cor-
2BB-	-di-	2g	-di-	2b-	-di-
=30	=30	=30	=30	=30	=30
2F	-a	2f	-a	2a	-a
2C	e-	2e	e-	2g	e-
=31	=31	=31	=31	=31	=31
1F	-ius	1f	-ius	1f	-ius
=32	=32	=32	=32	=32	=32
2r	.	2r	.	2r	.
2F	et	2f	et	2a	et
=33	=33	=33	=33	=33	=33
1C	ve-	1e	ve-	1g	ve-
=34	=34	=34	=34	=34	=34
1G	-ri-	1g	-ri-	1b-	-ri-
=35	=35	=35	=35	=35	=35
1F	-tas	1f	-tas	1a	-tas
=36	=36	=36	=36	=36	=36
1F	Do-	2r	.	2r	.
.	.	[2cc	Do-	2cc	Do-
=37	=37	=37	=37	=37	=37
1G	-mi-	4cc]	.	1dd	-mi-
.	.	8b-L	.	.	.
.	.	8aJ	.	.	.
.	.	2bn	-mi-	.	.
=38	=38	=38	=38	=38	=38
1C	-ni	1cc	-ni	1cc	-ni
=39	=39	=39	=39	=39	=39
2r	.	2r	.	2r	.
2C	ma-	2g	ma-	2cc	ma-
=40	=40	=40	=40	=40	=40
2.F	-net	2f	-net	2a	-net
.	.	2e	in	2g	in
4E	.	.	.	.	.
=41	=41	=41	=41	=41	=41
2D	in	2f	ae-	2a	ae-
2BB-	ae-	4e	.	2b-	.
.	.	4d	.	.	.
=42	=42	=42	=42	=42	=42
1C	-ter-	1e	-ter-	1g	-ter-
=43	=43	=43	=43	=43	=43
[1FF	-num.	[1f	-num.	[1f	-num.
=44	=44	=44	=44	=44	=44
1FF]	.	1f]	.	1f]	.
=45||	=45||	=45||	=45||	=45||	=45||
1F	Glo-	1f	Glo-	1f	Glo-
=46	=46	=46	=46	=46	=46
1D	-ri-	2f	-ri-	1a	-ri-
.	.	4e	.	.	.
.	.	4d	.	.	.
=47	=47	=47	=47	=47	=47
2.C	-a	2.e	-a	1cc	-a
4D	.	4f	.	.	.
=48	=48	=48	=48	=48	=48
2E	.	2g	Pa-	2cc	Pa-
2F	Pa-	2a	.	2cc	-tri
=49	=49	=49	=49	=49	=49
1G	-tri	2.g	.	1cc	et
.	.	4f	.	.	.
=50	=50	=50	=50	=50	=50
1A	et	4e	.	2.cc	Fi-
.	.	4d	.	.	.
.	.	2c	-tri	.	.
.	.	.	.	4dd	.
=51	=51	=51	=51	=51	=51
2G	Fi-	2g	et	2ee	.
2F	.	[2cc	Fi-	2ff	.
=52	=52	=52	=52	=52	=52
1G	-li-	4cc]	.	1dd	-li-
.	.	8bnL	.	.	.
.	.	8aJ	.	.	.
.	.	2b	-li-	.	.
=53	=53	=53	=53	=53	=53
1C	-o	1cc	-o	1cc	-o
=54	=54	=54	=54	=54	=54
2r	.	2r	.	2r	.
2F	et	2a	et	2a	et
=55	=55	=55	=55	=55	=55
1G	Spi-	2b-	Spi-	1dd	Spi-
.	.	2b-	-ri-	.	.
=56	=56	=56	=56	=56	=56
1A	-ri-	2a	-tu-	1cc	-ri-
.	.	2f	-i	.	.
=57	=57	=57	=57	=57	=57
1G	-tu-	1g	San-	1b-	-tu-
=58	=58	=58	=58	=58	=58
1D	-i	1f	-cto	1a	-i
=59	=59	=59	=59	=59	=59
2F	et	[1a	et	1cc	et
2E	.	.	.	.	.
=60	=60	=60	=60	=60	=60
2F	Spi-	2a]	.	2a	Spi-
2C	-ri-	2g	Spi-	2g	-ri-
=61	=61	=61	=61	=61	=61
2F	-tu-	2f	-ri-	2a	-tu-
2BB-	-i	2f	-tu-	2b-	-i
=62	=62	=62	=62	=62	=62
1C	San-	4e	-i	1g	San-
.	.	4d	.	.	.
.	.	2e	San-	.	.
=63	=63	=63	=63	=63	=63
1FF	-cto.	1f	-cto.	1f	-cto.
=64||	=64||	=64||	=64||	=64||	=64||
1F	Sic-	1f	Sic-	1f	Sic-
=65	=65	=65	=65	=65	=65
2C	-ut	2e	-ut	2g	-ut
2C	e-	2e	e-	2g	e-
=66	=66	=66	=66	=66	=66
1F	-rat	1f	-rat	1a	-rat
=67	=67	=67	=67	=67	=67
2r	.	2r	.	2r	.
2F	in	2f	in	2a	in
=68	=68	=68	=68	=68	=68
1F	prin-	1f	prin-	1a	prin-
=69	=69	=69	=69	=69	=69
2F	-ci-	2.a	-ci-	2cc	-ci-
2F	-pi-	.	.	2b-	-pi-
.	.	4g	-pi-	.	.
=70	=70	=70	=70	=70	=70
1F	-o	1f	-o	1a	-o
=71	=71	=71	=71	=71	=71
2r	.	2r	.	2r	.
2F	et	2f	et	2a	et
=72	=72	=72	=72	=72	=72
1BB-	nunc	1g	nunc	1b-	nunc
=73	=73	=73	=73	=73	=73
2F	et	2f	et	2a	et
2C	sem-	2e	sem-	2g	sem-
=74	=74	=74	=74	=74	=74
1F	-per	1f	-per	1f	-per
=75	=75	=75	=75	=75	=75
2r	.	2r	.	2r	.
2F	et	2f	et	2a	et
=76	=76	=76	=76	=76	=76
1C	in	1e	in	1g	in
=77	=77	=77	=77	=77	=77
2G	sae-	2g	sae-	2b-	sae-
2G	-cu-	2g	-cu-	2b-	-cu-
=78	=78	=78	=78	=78	=78
1F	-la	1f	-la	1a	-la
=79	=79	=79	=79	=79	=79
2r	.	2r	.	2r	.
2E	in	[2cc	in	2cc	in
=80	=80	=80	=80	=80	=80
2.G	sae-	4cc]	.	2.dd	sae-
.	.	8bnL	sae-	.	.
.	.	8aJ	.	.	.
.	.	2b	-cu-	.	.
4G	-cu-	.	.	4dd	-cu-
=81	=81	=81	=81	=81	=81
1C	-la	1cc	-la	1cc	-la
=82	=82	=82	=82	=82	=82
2r	.	2r	.	2r	.
2F	sae-	2f	sae-	2a	sae-
=83	=83	=83	=83	=83	=83
1E	-cu-	2.cc	-cu-	1g	-cu-
.	.	4b-	.	.	.
=84	=84	=84	=84	=84	=84
2D	-lo-	2a	-lo-	2a	-lo-
2BB-	-rum	2b-	-rum	2b-	-rum
=85	=85	=85	=85	=85	=85
1C	a-	2.cc	a-	1g	a-
.	.	4b-	.	.	.
=86	=86	=86	=86	=86	=86
[1F	-men.	[1a	-men.	[1f	-men.
=87	=87	=87	=87	=87	=87
1F]	.	1a]	.	1f]	.
=88||	=88||	=88||	=88||	=88||	=88||
!	!	!	!	!LO:TX:Z=70:t=Antiphona ad Magnificat	!
!	!	!	!	!LO:TX:Z=36:t=[Chorał&colon;] Vespere autem Sabbathi	!
[1D	Quae	[1f	Quae	[1a	Quae
=89	=89	=89	=89	=89	=89
2D]	.	2f]	.	2a]	.
2D	lu-	2f	lu-	2a	lu-
=90	=90	=90	=90	=90	=90
1G	-ce	1g	-ce	1b-	-ce
=91	=91	=91	=91	=91	=91
1D	scit	1f	scit	1a	scit
=92	=92	=92	=92	=92	=92
1G	in	1g	in	1b-	in
=93	=93	=93	=93	=93	=93
2F	pri-	2f	pri-	2a	pri-
2D	-ma	2a	-ma	2dd	-ma
=94	=94	=94	=94	=94	=94
[1A	sab-	[1e	sab-	[1cc#	sab-
=95	=95	=95	=95	=95	=95
2A]	.	2e]	.	2cc#]	.
2A	-ba-	2e	-ba-	2cc#	-ba-
=96	=96	=96	=96	=96	=96
1D	-ti	1f#	-ti	1dd	-ti
=97	=97	=97	=97	=97	=97
1D	ve-	1f	ve-	1a	ve-
=98	=98	=98	=98	=98	=98
2D	-nit	2f	-nit	2a	-nit
2D	Ma-	2f	Ma-	2a	Ma-
=99	=99	=99	=99	=99	=99
1F	-ri-	1f	-ri-	1a	-ri-
=100	=100	=100	=100	=100	=100
1C	-a	1e	-a	1g	-a
=101	=101	=101	=101	=101	=101
2G	Mag-	2d	Mag-	2b-	Mag-
2D	-da-	2f	-da-	2a	-da-
=102	=102	=102	=102	=102	=102
1A	-le-	1e	-le-	1a	-le-
=103	=103	=103	=103	=103	=103
1D	-ne	1d	-ne	1a	-ne
=104	=104	=104	=104	=104	=104
1F	et	1f	et	1a	et
=105	=105	=105	=105	=105	=105
2F	al-	2f	al-	2a	al-
2F	-te-	2f	-te-	2a	-te-
=106	=106	=106	=106	=106	=106
2C	-ra	2e	-ra	2g	-ra
2D	Ma-	2d	Ma-	2f	Ma-
=107	=107	=107	=107	=107	=107
1AA	-ri-	1c#	-ri-	1e	-ri-
=108	=108	=108	=108	=108	=108
1D	-a	1d	-a	1f	-a
=109	=109	=109	=109	=109	=109
1D	vi-	1d	vi-	1f	vi-
=110	=110	=110	=110	=110	=110
1F	-de-	1f	-de-	1a	-de-
=111	=111	=111	=111	=111	=111
2C	-re	2e	-re	2g	-re
2D	se-	2d	se-	2f	se-
=112	=112	=112	=112	=112	=112
1AA	-pul-	1c#	-pul-	1e	-pul-
=113	=113	=113	=113	=113	=113
1D	-chrum	1d	-chrum	1f	-chrum
=114	=114	=114	=114	=114	=114
1D	al-	1f	al-	1a	al-
=115	=115	=115	=115	=115	=115
2G	-le-	2g	-le-	2b-	-le-
2A	-lu-	2e	-lu-	2a	-lu-
=116	=116	=116	=116	=116	=116
1D	-ia	1f	-ia	1a	-ia
=117	=117	=117	=117	=117	=117
1D	al-	1d	al-	1f	al-
=118	=118	=118	=118	=118	=118
2AA	-le-	2c#	-le-	2e	-le-
2AA	-lu-	2c#	-lu-	2e	-lu-
=119	=119	=119	=119	=119	=119
1D	-ia	1d	-ia	1f	-ia
=120	=120	=120	=120	=120	=120
[1GG	al-	[1e	al-	[1g	al-
=121	=121	=121	=121	=121	=121
2GG]	.	2e]	.	2g]	.
2D	-le-	2d	-le-	2f	-le-
=122	=122	=122	=122	=122	=122
[1AA	-lu-	[1c#	-lu-	[1e	-lu-
=123	=123	=123	=123	=123	=123
1AA]	.	1c#]	.	1e]	.
=124	=124	=124	=124	=124	=124
[1D	-ia.	[1d	-ia.	[1f#	-ia.
=125	=125	=125	=125	=125	=125
1D]	.	1d]	.	1f#]	.
=126||	=126||	=126||	=126||	=126||	=126||
1F	Et	1a	Et	1cc	Et
=127	=127	=127	=127	=127	=127
2BB-	ex-	2b-	ex-	2dd	ex-
2D	-sul-	2f	-sul-	4a	-sul-
.	.	.	.	4b-	.
=128	=128	=128	=128	=128	=128
1C	-ta-	1cc	-ta-	1cc	-ta-
=129	=129	=129	=129	=129	=129
2FF	-vit	2a	-vit	2cc	-vit
[2F	Spi-	[2a	Spi-	[2cc	Spi-
=130	=130	=130	=130	=130	=130
4F]	.	4a]	.	4cc]	.
4F	-ri-	4a	-ri-	4dd	-ri-
2E	-tus	2g	-tus	2ee	-tus
=131	=131	=131	=131	=131	=131
1D	me-	2a	me-	1ff	me-
.	.	2bni	-us	.	.
=132	=132	=132	=132	=132	=132
2C	-us	2cc	in	2ee	-us
2FF	in	2a	De-	2cc	in
=133	=133	=133	=133	=133	=133
1BB-	De-	1b-	-o	1dd	De-
=134	=134	=134	=134	=134	=134
2FF	-o	2cc	in	2cc	-o
2BB-	in	2b-	De-	2dd	in
=135	=135	=135	=135	=135	=135
4F	De-	1cc	-o	1cc	De-
4E-i	.	.	.	.	.
4D	.	.	.	.	.
4C	.	.	.	.	.
=136	=136	=136	=136	=136	=136
2BB-	-o	2b-	sa-	2dd	-o
2F	sa-	2cc	-lu-	2ff	sa-
=137	=137	=137	=137	=137	=137
1D	-lu-	1dd	-ta-	1ff	-lu-
=138	=138	=138	=138	=138	=138
2E	-ta-	2cc	-ri	2ee	-ta-
2F	-ri	2cc	sa-	2cc	-ri
=139	=139	=139	=139	=139	=139
1D	me-	2.a	-lu-	1dd	me-
.	.	4b-	.	.	.
=140	=140	=140	=140	=140	=140
2C	-o	2cc	-ta-	2ee	-o
2F	sa-	2a	-ri	2r	.
=141	=141	=141	=141	=141	=141
2.F	-lu-	2.a	me-	1ff	sa-
4E	.	4g	.	.	.
=142	=142	=142	=142	=142	=142
2.D	-ta-	[1f	-o	2.ff	-lu-
4C	-ri	.	.	4ee	.
=143	=143	=143	=143	=143	=143
2.BB-	me-	1f]	.	2.dd	-ta-
4AA	.	.	.	4cc	-ri
=144	=144	=144	=144	=144	=144
1GG	-o	1g	sa-	1b-	me-
=145	=145	=145	=145	=145	=145
1FF	sa-	1a	-lu-	[1cc	-o
=146	=146	=146	=146	=146	=146
1C	-lu-	1g	-ta-	1cc]	.
=147	=147	=147	=147	=147	=147
4FF	-ta-	2f	-ri	1cc	sa-
4GG	.	.	.	.	.
4AA	.	2a	sa-	.	.
4BB-	.	.	.	.	.
=148	=148	=148	=148	=148	=148
2C	.	2g	-lu-	1cc	-lu-
2AA	-ri	2cc	.	.	.
=149	=149	=149	=149	=149	=149
1BB-	me-	2.b-	-ta-	2dd	-ta-
.	.	.	.	2dd	-ri
.	.	4a	-ri	.	.
=150	=150	=150	=150	=150	=150
1C	.	1g	me-	1cc	me-
=151	=151	=151	=151	=151	=151
[1FF	-o.	[1a	-o.	[1cc	-o.
=152	=152	=152	=152	=152	=152
1FF_	.	1a_	.	1cc_	.
=153	=153	=153	=153	=153	=153
1FF]	.	1a]	.	1cc]	.
=154||	=154||	=154||	=154||	=154||	=154||
[1F	Qui-	1a	Qui-	[1cc	Qui-
=155	=155	=155	=155	=155	=155
2F]	.	1f	-a	2cc]	.
2F	-a	.	.	2a	-a
=156	=156	=156	=156	=156	=156
4BB-	fe-	1b-	fe-	1b-	fe-
4C	.	.	.	.	.
4D	-cit	.	.	.	.
4E-i	.	.	.	.	.
=157	=157	=157	=157	=157	=157
2F	mi-	2a	-cit	2cc	-cit
2F	-hi	2cc	mi-	2cc	mi-
=158	=158	=158	=158	=158	=158
2BB-	ma-	2b-	-hi	2dd	-hi
2C	.	2g	ma-	2ee	ma-
=159	=159	=159	=159	=159	=159
2FF	-gna	2a	-gna	2ff	-gna
2BB-	qui	2b-	qui	2dd	qui
=160	=160	=160	=160	=160	=160
2E-	po-	2b-	po-	2ee-i	po-
2F	-tens	2a	-tens	2cc	-tens
=161	=161	=161	=161	=161	=161
2BB-	est	2b-	est	2dd	est
2BB-	qui	2dd	qui	2dd	qui
=162	=162	=162	=162	=162	=162
2E-	po-	2b-	po-	2ee-i	po-
2C	-tens	2cc	-tens	2ee-	-tens
=163	=163	=163	=163	=163	=163
2BB-	est	2dd	est	2dd	est
2F	et	2a	et	2cc	et
=164	=164	=164	=164	=164	=164
2.BB-	san-	2b-	san-	2.dd	san-
.	.	2b-	-ctum	.	.
4C	-ctum	.	.	4ee	-ctum
=165	=165	=165	=165	=165	=165
2D	no-	2a	no-	2ff	no-
2BB-	-men	2b-	-men	2dd	-men
=166	=166	=166	=166	=166	=166
1F	e-	1cc	e-	1cc	e-
=167	=167	=167	=167	=167	=167
2BB-	-ius	2dd	-ius	2b-	-ius
2D	et	2dd	et	2a	et
=168	=168	=168	=168	=168	=168
2.GG	san-	2.dd	san-	2.b-	san-
4AA	-ctum	4cc	-ctum	4cc	-ctum
=169	=169	=169	=169	=169	=169
2BB-	no-	2b-	no-	2dd	no-
2GG	-men	2b-	-men	2b-	-men
=170	=170	=170	=170	=170	=170
1D	e-	1dd	e-	1a	e-
=171	=171	=171	=171	=171	=171
2GG	-ius	2b-	-ius	2b-	-ius
2C	et	2cc	et	2cc	et
=172	=172	=172	=172	=172	=172
2BB-	san-	1f	san-	2dd	san-
2F	-ctum	.	.	2cc	-ctum
=173	=173	=173	=173	=173	=173
2.BB-	no-	1f	-ctum	2.dd	no-
4AA	.	.	.	4cc	-men
=174	=174	=174	=174	=174	=174
1GG	-men	[1g	no-	1b-	e-
=175	=175	=175	=175	=175	=175
1C	e-	1g]	.	[1cc	-ius
=176	=176	=176	=176	=176	=176
2FF	-ius	2.a	-men	1cc]	.
2F	et	.	.	.	.
.	.	4b-	.	.	.
=177	=177	=177	=177	=177	=177
2.F	san-	1cc	e-	1ff	et
4E	.	.	.	.	.
=178	=178	=178	=178	=178	=178
2D	.	2a	-ius	2ff	san-
2C	-ctum	2cc	et	2ee	-ctum
=179	=179	=179	=179	=179	=179
2.BB-	no-	2.dd	san-	2.dd	no-
4AA	.	4cc	-ctum	4cc	.
=180	=180	=180	=180	=180	=180
2GG	-men	2b-	no-	4dd	-men
.	.	.	.	4ee	.
2FF	.	2cc	-men	[2ff	e-
=181	=181	=181	=181	=181	=181
1C	e-	1cc	e-	4ff]	.
.	.	.	.	8eeL	.
.	.	.	.	8ddJ	.
.	.	.	.	2ee	.
=182	=182	=182	=182	=182	=182
[1FF	-ius.	[1cc	-ius.	[1ff	-ius.
=183	=183	=183	=183	=183	=183
1FF]	.	1cc]	.	1ff]	.
=184||	=184||	=184||	=184||	=184||	=184||
1F	Fe-	1a	Fe-	1cc	Fe-
=185	=185	=185	=185	=185	=185
2BB-	-cit	2b-	-cit	2dd	-cit
2AA	po-	2cc	po-	2cc	po-
=186	=186	=186	=186	=186	=186
2BB-	-ten-	2b-	-ten-	2dd	-ten-
2C	-ti-	2g	-ti-	2ee	-ti-
=187	=187	=187	=187	=187	=187
2FF	-am	2a	-am	2ff	-am
2F	in	2cc	in	2ff	in
=188	=188	=188	=188	=188	=188
1BB-	bra-	1b-	bra-	1dd	bra-
=189	=189	=189	=189	=189	=189
2C	-chi-	2g	-chi-	2cc	-chi-
2C	-o	2g	-o	[2cc	-o
=190	=190	=190	=190	=190	=190
1GG	su-	1g	su-	4cc]	.
.	.	.	.	8bnL	.
.	.	.	.	8aJ	.
.	.	.	.	2b	su-
=191	=191	=191	=191	=191	=191
2C	-o	2g	-o	2cc	-o
2BB-	dis-	2b-	dis-	2dd	dis-
=192	=192	=192	=192	=192	=192
1BB-	-per-	1b-	-per-	1dd	-per-
=193	=193	=193	=193	=193	=193
2FF	-sit	2a	-sit	2cc	-sit
2GG	su-	2g	su-	2b-	su-
=194	=194	=194	=194	=194	=194
1D	-per-	1f#	-per-	1a	-per-
=195	=195	=195	=195	=195	=195
2GG	-bos	2g	-bos	2g	-bos
2BB-	dis-	2dd	dis-	2ff	dis-
=196	=196	=196	=196	=196	=196
1BB-	-per-	1dd	-per-	1ff	-per-
=197	=197	=197	=197	=197	=197
2E-	-sit	2cc	-sit	2ee-	-sit
2BB-	su-	2b-	su-	2dd	su-
=198	=198	=198	=198	=198	=198
4F	-per-	1cc	-per-	1cc	-per-
4E-	.	.	.	.	.
4D	.	.	.	.	.
4C	.	.	.	.	.
=199	=199	=199	=199	=199	=199
2BB-	-bos	2dd	-bos	2b-	-bos
2BB-	dis-	2b-	dis-	2dd	dis-
=200	=200	=200	=200	=200	=200
1BB-	-per-	1b-	-per-	1dd	-per-
=201	=201	=201	=201	=201	=201
2FF	-sit	2a	-sit	2cc	-sit
2GG	su-	2g	su-	2b-	su-
=202	=202	=202	=202	=202	=202
1D	-per-	1f#	-per-	1a	-per-
=203	=203	=203	=203	=203	=203
2GG	-bos	2g	-bos	2b-	-bos
[2GG	men-	[2g	men-	[2b-	men-
=204	=204	=204	=204	=204	=204
2GG]	.	2g]	.	2b-]	.
2C	-te	2g	-te	2cc	-te
=205	=205	=205	=205	=205	=205
2BB-	cor-	2b-	cor-	2dd	cor-
2GG	-dis	2b-	-dis	[2dd	-dis
=206	=206	=206	=206	=206	=206
1AA	su-	1a	su-	4dd]	.
.	.	.	.	8cc#iL	.
.	.	.	.	8bniJ	.
.	.	.	.	2cc#	su-
=207	=207	=207	=207	=207	=207
2D	-i	2a	-i	2dd	-i
[2F	men-	[2cc	men-	[2ff	men-
=208	=208	=208	=208	=208	=208
2F]	.	2cc]	.	2ff]	.
2D	-te	2dd	-te	2ff	-te
=209	=209	=209	=209	=209	=209
2E-	cor-	2b-	cor-	2ee-	cor-
2BB-	-dis	[2b-	-dis	2dd	-dis
=210	=210	=210	=210	=210	=210
4F	su-	4b-]	.	1cc	su-
4E-i	.	8aL	.	.	.
.	.	8gJ	.	.	.
4D	.	2a	su-	.	.
4C	.	.	.	.	.
=211	=211	=211	=211	=211	=211
2BB-	-i	2b-	-i	2dd	-i
[2D	men-	[2a	men-	[2dd	men-
=212	=212	=212	=212	=212	=212
2D]	.	2a]	.	2dd]	.
2G	-te	2b-	-te	2b-	-te
=213	=213	=213	=213	=213	=213
2F	cor-	2a	cor-	2cc	cor-
2D	-dis	2b-	-dis	2dd	-dis
=214	=214	=214	=214	=214	=214
1C	su-	1cc	su-	1ee-i	su-
=215	=215	=215	=215	=215	=215
2BB-	-i	2dd	-i	2dd	-i
[2F	men-	[2cc	men-	[2ff	men-
=216	=216	=216	=216	=216	=216
2F]	.	2cc]	.	2ff]	.
2C	-te	2cc	-te	2ee-	-te
=217	=217	=217	=217	=217	=217
2D	cor-	2a	cor-	2dd	cor-
2BB-	-dis	4b-	-dis	2dd	-dis
.	.	4a	.	.	.
=218	=218	=218	=218	=218	=218
1C	su-	1g	su-	1cc	su-
=219	=219	=219	=219	=219	=219
[1FF	-i.	[1a	-i.	[1cc	-i.
=220	=220	=220	=220	=220	=220
1FF]	.	1a]	.	1cc]	.
=221||	=221||	=221||	=221||	=221||	=221||
1F	E-	1a	E-	1cc	E-
=222	=222	=222	=222	=222	=222
2F	-su-	2a	-su-	2cc	-su-
2F	-ri-	2a	-ri-	2cc	-ri-
=223	=223	=223	=223	=223	=223
4BB-	-en-	1b-	-en-	1dd	-en-
4C	.	.	.	.	.
4D	.	.	.	.	.
4E-i	.	.	.	.	.
=224	=224	=224	=224	=224	=224
2F	-tes	2a	-tes	1cc	-tes
2F	im-	2cc	im-	.	.
=225	=225	=225	=225	=225	=225
2D	-ple-	2dd	-ple-	1r	.
2BB-	-vit	2dd	-vit	.	.
=226	=226	=226	=226	=226	=226
1F	bo-	1cc	bo-	1cc	im-
=227	=227	=227	=227	=227	=227
1BB-	-nis	1b-	-nis	2dd	-ple-
.	.	.	.	2dd	-vit
=228	=228	=228	=228	=228	=228
1r	.	1r	.	1cc	bo-
=229	=229	=229	=229	=229	=229
2r	.	2r	.	2b-	-nis
2F	im-	2cc	im-	2r	.
=230	=230	=230	=230	=230	=230
2D	-ple-	2dd	-ple-	1r	.
2BB-	-vit	2dd	-vit	.	.
=231	=231	=231	=231	=231	=231
4F	bo-	1cc	bo-	1cc	im-
4E-i	.	.	.	.	.
4D	.	.	.	.	.
4C	.	.	.	.	.
=232	=232	=232	=232	=232	=232
2BB-	.	1b-	-nis	2dd	-ple-
4AA	.	.	.	2dd	-vit
4GG	.	.	.	.	.
=233	=233	=233	=233	=233	=233
1FF	.	1cc	bo-	1cc	bo-
=234	=234	=234	=234	=234	=234
2BB-	-nis	2dd	-nis	2b-	-nis
2BB-	et	2b-	et	2dd	et
=235	=235	=235	=235	=235	=235
2.E-	di-	2.b-	di-	2.ee-	di-
4E-	-vi-	4b-	-vi-	4ee-	-vi-
=236	=236	=236	=236	=236	=236
2BB-	-tes	2b-	-tes	2dd	-tes
2FF	di-	2cc	di-	2ff	di-
=237	=237	=237	=237	=237	=237
1BB-	-mi-	1dd	-mi-	1ff	-mi-
=238	=238	=238	=238	=238	=238
2C	-sit	2cc	-sit	2ee-	-sit
4D	in-	[2b-	in-	2dd	in-
4E-	.	.	.	.	.
=239	=239	=239	=239	=239	=239
1F	-a-	4b-]	.	1cc	-a-
.	.	8aL	.	.	.
.	.	8gJ	.	.	.
.	.	2a	-a-	.	.
=240	=240	=240	=240	=240	=240
1BB-	-nes	1b-	-nes	2dd	-nes
.	.	.	.	2dd	in-
=241	=241	=241	=241	=241	=241
2r	.	2r	.	2cc	-a-
2BB-	in-	2b-	in-	2dd	-nes
=242	=242	=242	=242	=242	=242
2FF	-a-	2cc	-a-	2r	.
2BB-	-nes	2b-	-nes	2dd	in-
=243	=243	=243	=243	=243	=243
2r	.	2r	.	2cc	-a-
2BB-	in-	2b-	in-	2dd	-nes
=244	=244	=244	=244	=244	=244
2FF	-a-	2cc	-a-	2r	.
2BB-	-nes	2b-	-nes	2dd	in-
=245	=245	=245	=245	=245	=245
1r	.	1r	.	2cc	-a-
.	.	.	.	2dd	-nes
=246	=246	=246	=246	=246	=246
2r	.	2r	.	2r	.
2BB-	in-	2b-	in-	2dd	in-
=247	=247	=247	=247	=247	=247
1FF	-a-	1a	-a-	1cc	-a-
=248	=248	=248	=248	=248	=248
2BB-	-nes	2b-	-nes	2dd	-nes
2BB-	di-	2dd	di-	2ff	di-
=249	=249	=249	=249	=249	=249
1BB-	-mi-	2.dd	-mi-	1ff	-mi-
.	.	4cc	.	.	.
=250	=250	=250	=250	=250	=250
2E-	-sit	2b-	-sit	2ee-	-sit
2BB-	in-	[2b-	in-	2dd	in-
=251	=251	=251	=251	=251	=251
1FF	-a-	4b-]	.	1cc	-a-
.	.	8aL	.	.	.
.	.	8gJ	.	.	.
.	.	2a	-a-	.	.
=252	=252	=252	=252	=252	=252
2BB-	-nes	2b-	-nes	2dd	-nes
2FF	in-	2a	in-	2cc	in-
=253	=253	=253	=253	=253	=253
1C	-a-	2g	-a-	1cc	-a-
.	.	2cc	.	.	.
=254	=254	=254	=254	=254	=254
[1FF	-nes.	[1a	-nes.	[1cc	-nes.
=255	=255	=255	=255	=255	=255
1FF]	.	1a]	.	1cc]	.
=256||	=256||	=256||	=256||	=256||	=256||
1F	Sic-	1a	Sic-	1cc	Sic-
=257	=257	=257	=257	=257	=257
2D	-ut	2a	-ut	2f	-ut
2C	lo-	2cc	lo-	2cc	lo-
=258	=258	=258	=258	=258	=258
2GG	-cu-	2dd	-cu-	2b-	-cu-
2C	-tus	2b-	-tus	2g	-tus
=259	=259	=259	=259	=259	=259
2FF	est	2cc	est	2a	est
2F	ad	2a	ad	2cc	ad
=260	=260	=260	=260	=260	=260
2BB-	pa-	2b-	pa-	2dd	pa-
2FF	-tres	2cc	-tres	2cc	-tres
=261	=261	=261	=261	=261	=261
1BB-	no-	1dd	no-	1b-	no-
=262	=262	=262	=262	=262	=262
2FF	-stros	2cc	-stros	2a	-stros
2BB-	ad	2dd	ad	2r	.
=263	=263	=263	=263	=263	=263
2F	pa-	2cc	pa-	2r	.
2BB-	-tres	2b-	-tres	2dd	ad
=264	=264	=264	=264	=264	=264
2FF	no-	2cc	no-	2cc	pa-
2BB-	-stros	2dd	-stros	2b-	-tres
=265	=265	=265	=265	=265	=265
2r	.	2r	.	2cc	no-
2BB-	ad	2dd	ad	4b-	-stros
.	.	.	.	4b-	ad
=266	=266	=266	=266	=266	=266
2FF	pa-	2cc	pa-	2cc	pa-
2BB-	-tres	2b-	-tres	2dd	-tres
=267	=267	=267	=267	=267	=267
1FF	no-	1cc	no-	1cc	no-
=268	=268	=268	=268	=268	=268
2BB-	-stros	2b-	-stros	1dd	-stros
[2BB-	A-	[2dd	A-	.	.
=269	=269	=269	=269	=269	=269
2BB-]	.	2dd]	.	[1ff	A-
2FF	-bra-	2cc	-bra-	.	.
=270	=270	=270	=270	=270	=270
1FF	-ham	2cc	-ham	2ff]	.
.	.	[2cc	A-	2cc	-bra-
=271	=271	=271	=271	=271	=271
[1C	A-	2cc]	.	2cc	-ham
.	.	2cc	-bra-	[2cc	A-
=272	=272	=272	=272	=272	=272
2C]	.	1g	-ham	2cc]	.
2C	-bra-	.	.	2cc	-bra-
=273	=273	=273	=273	=273	=273
2FF	-ham	1a	et	2a	-ham
2FF	et	.	.	2cc	et
=274	=274	=274	=274	=274	=274
2.BB-	se-	2.b-	se-	2.dd	se-
4BB-	-mi-	4b-	-mi-	4dd	-mi-
=275	=275	=275	=275	=275	=275
1FF	-ni	1cc	-ni	1cc	-ni
=276	=276	=276	=276	=276	=276
1BB-	e-	2dd	e-	1b-	e-
.	.	2b-	.	.	.
=277	=277	=277	=277	=277	=277
2FF	-ius	2a	-ius	2cc	-ius
2C	et	2g	in	2cc	et
=278	=278	=278	=278	=278	=278
2.F	se-	2.a	sae-	2.cc	se-
4F	-mi-	4a	-cu-	4cc	-mi-
=279	=279	=279	=279	=279	=279
1E	-ni	1cc	-la	1g	-ni
=280	=280	=280	=280	=280	=280
1D	e-	1dd	e-	2.a	e-
.	.	.	.	4b-	.
=281	=281	=281	=281	=281	=281
2C	-ius	2g	-ius	2cc	-ius
2AA	in	2a	in	2cc	in
=282	=282	=282	=282	=282	=282
2BB-	sae-	2dd	sae-	2dd	sae-
2C	-cu-	2cc	-cu-	2ee	-cu-
=283	=283	=283	=283	=283	=283
2AA	-la	2cc	-la	2ff	-la
2F	in	2cc	in	2cc	in
=284	=284	=284	=284	=284	=284
[1BB-	sae-	[1b-	sae-	[1dd	sae-
=285	=285	=285	=285	=285	=285
2BB-]	.	2b-]	.	2dd]	.
2BB-	-cu-	2b-	-cu-	2dd	-cu-
=286	=286	=286	=286	=286	=286
[1FF [1F	-la.	[1a	-la.	[1cc	-la.
=287	=287	=287	=287	=287	=287
1FF] 1F]	.	1a]	.	1cc]	.
=288||	=288||	=288||	=288||	=288||	=288||
1F	Sic-	1a	Sic-	1a	Sic-
=289	=289	=289	=289	=289	=289
2.E-	-ut	1g	-ut	1b-	-ut
4D	.	.	.	.	.
=290	=290	=290	=290	=290	=290
1C	e-	1g	e-	1cc	e-
=291	=291	=291	=291	=291	=291
2FF	-rat	2a	-rat	2cc	-rat
[2BB-	in	[2dd	in	[2b-	in
=292	=292	=292	=292	=292	=292
2BB-]	.	2dd]	.	2b-]	.
2AA	prin-	2cc	prin-	2cc	prin-
=293	=293	=293	=293	=293	=293
2.BB-	-ci-	2.b-	-ci-	2.dd	-ci-
4BB-	-pi-	4b-	-pi-	4dd	-pi-
=294	=294	=294	=294	=294	=294
1FF	-o	1a	-o	2cc	-o
.	.	.	.	2cc	et
=295	=295	=295	=295	=295	=295
2r	.	2r	.	2cc	nunc
2F	et	2cc	et	2a	et
=296	=296	=296	=296	=296	=296
2E	nunc	2cc	nunc	2g	sem-
2F	et	2a	et	4a	-per
.	.	.	.	4cc	et
=297	=297	=297	=297	=297	=297
2C	sem-	2g	sem-	2cc	nunc
4FF	-per	4a	-per	2a	et
4F	et	4cc	et	.	.
=298	=298	=298	=298	=298	=298
2E	[nunc	2cc	nunc	2g	sem-
!LO:TX:Z=25:t=Brak 2 takt&oacute;w	!	!	!	!	!
2F	et	2a	et	4a	-per
.	.	.	.	4cc	et
=299	=299	=299	=299	=299	=299
2C	sem-	2g	sem-	2cc	nunc
4FF	-per	4a	-per	2a	et
4F	et]	4cc	et	.	.
=300	=300	=300	=300	=300	=300
2E	nunc	2cc	nunc	2g	sem-
2F	et	2a	et	4a	-per
.	.	.	.	4cc	et
=301	=301	=301	=301	=301	=301
1C	sem-	1g	sem-	1cc	sem-
=302	=302	=302	=302	=302	=302
1FF	-per	1a	-per	1cc	-per
=303	=303	=303	=303	=303	=303
*M3/2	*	*M3/2	*	*M3/2	*
1F	et	1cc	et	1ff	et
2C	in	2cc	in	2ee	in
=304	=304	=304	=304	=304	=304
2.D	sae-	2.a	sae-	2.dd	sae-
4D	-cu-	4b-	-cu-	4dd	-cu-
2AA	-la	2cc	-la	2cc	-la
=305	=305	=305	=305	=305	=305
1BB-	sae-	1.r	.	1dd	sae-
2AA	-cu-	.	.	2cc	-cu-
=306	=306	=306	=306	=306	=306
1BB-	-lo-	1dd	sae-	1b-	-lo-
2FF	-rum	2cc	-cu-	2cc	-rum
=307	=307	=307	=307	=307	=307
1BB-	sae-	1b-	-lo-	1dd	sae-
2AA	-cu-	2cc	-rum	2cc	-cu-
=308	=308	=308	=308	=308	=308
1BB-	-lo-	1dd	sae-	1b-	-lo-
2FF	-rum	2cc	-cu-	2cc	-rum
=309	=309	=309	=309	=309	=309
1BB-	sae-	1b-	-lo-	1dd	sae-
2AA	-cu-	2cc	-rum	2cc	-cu-
=310	=310	=310	=310	=310	=310
1BB-	-lo-	1dd	a-	1b-	-lo-
2FF	-rum	2cc	-men	2cc	-rum
=311	=311	=311	=311	=311	=311
*met(c|)	*	*met(c|)	*	*met(c|)	*
*M2/2	*	*M2/2	*	*M2/2	*
[1C	et	[1g	et	[1cc	et
=312	=312	=312	=312	=312	=312
2C]	.	2g]	.	2cc]	.
2FF	in	2a	in	2cc	in
=313	=313	=313	=313	=313	=313
2.BB-	sae-	2.b-	sae-	2.dd	sae-
4BB-	-cu-	4b-	-cu-	4dd	-cu-
=314	=314	=314	=314	=314	=314
2FF	-la	2a	-la	2cc	-la
[2F	sae-	[2cc	sae-	[2ff	sae-
=315	=315	=315	=315	=315	=315
2F]	.	2cc]	.	2ff]	.
2C	-cu-	2cc	-cu-	2ee-	-cu-
=316	=316	=316	=316	=316	=316
2D	-lo-	2a	-lo-	2dd	-lo-
2BB-	-rum	4b-	-rum	2dd	-rum
.	.	4a	.	.	.
=317	=317	=317	=317	=317	=317
1C	a-	1g	a-	1cc	a-
=318	=318	=318	=318	=318	=318
1FF	-men	1a	-men	1cc	-men
=319	=319	=319	=319	=319	=319
2BB-	a-	2.b-	a-	2.dd	a-
2AA	-men	.	.	.	.
.	.	4cc	.	4cc	.
=320	=320	=320	=320	=320	=320
1BB-	a-	4dd	.	4b-	.
.	.	4cc	.	4cc	.
.	.	2b-	.	2dd	.
=321	=321	=321	=321	=321	=321
[1FF [1F	-men.	[1a	-men.	[1cc	-men.
=322	=322	=322	=322	=322	=322
1FF] 1F]	.	1a]	.	1cc]	.
==	==	==	==	==	==
*-	*-	*-	*-	*-	*-
!!title: @{OTL}, @{GTL}: @{pag}, ed. @{ENC}
!!!pag: pp. 2r-7r 
!!!EFL: 2/117
!!!YEM: Creative Commons CC/BY/NC/SA 4.0
!!!ENC: Marcin Konik
!!!END: 2015-03-01
!!!EED: Marcin Konik
!!!EEV: 
!!!ONB: Encoded in vim by Marcin Konik
!!!CharacterEncoding: utf-8
!!!RDF**kern: l=long note in original notation
!!!RDF**kern: i=editorial accidental
!!muse2ps: z14jc180F
